X:1
T:Title
%%score { ( 1 3 ) | ( 2 4 ) }
L:1/8
Q:1/4=120
M:6/4
K:Db
V:1 treble nm="Grand Piano"
V:3 treble 
V:2 bass 
V:4 bass 
V:1
 [FA]2 [FB]2 [Fc]2 [Fd]2 [Ge]2 [Fd]2 | [DF]2 [EG]2 [FA]2 [Gc]6 | %2
w: Charles~H.~Gabriel * * * * *||
 [CE]2 [DF]2 [EG]2 [CGB]2 [CGc]2 [CGB]2 | [GB]2 [FA]2 [_F=G]2 [=FA]6 | %4
w: ||
 [FA]2 [FB]2 [Fc]2 [Fd]2 [Ge]2 [Fd]2 | F2 G2 A2 B6 | [=GB]2 [Gc]2 d2 c2 e2 [EA]2 | %7
w: |||
[M:13/8] c2 c2 B2 A-[DA-][EA-][FA-] [GA]3 |[M:6/4] z6 .F6 | .[DFB]6 c2- [Gc-]2 [Gc]2 | %10
w: |||
 e2 c2 B2 [CEG]2 [EGc]2 [CGB]2 | z2 A4- A4 z2 | [FA]2 [FB]2 [Fc]2 d2 e2 [Ad]2 | d6 E6 | %14
w: ||||
 F2 A2 A2 A4 [EGA]2 | [DFA]12 |] %16
w: ||
V:2
 [D,D]2 [D,D]2 [D,D]2 [D,A,]2 [D,A,]2 [D,A,]2 | [D,A,]2 [D,A,]2 [D,D]2 [E,A,]6 | %2
 [A,,G,]2 [A,,A,]2 [A,,A,]2 A,,2 A,,2 A,,2 | [D,D]2 [D,D]2 [D,D]2 [D,D]6 | %4
 [D,D]2 [D,D]2 [D,D]2 [D,A,]2 [D,A,]2 [D,A,]2 | [D,A,D]2 [E,A,C]2 [F,D]2 [G,DG]6 | %6
 [E,D]2 [E,C]2 [=G,B,E]2 [A,E]2 [A,CE]2 [C,A,]2 |[M:13/8] [E,A,E]2 [E,A,E]2 [E,=G,D]2 z B,CD E3 | %8
[M:6/4] z2[K:treble] B2[K:bass] D,2 [D,A,]2 D,2 D,2 | %9
 z2[K:treble] c2 d2[K:bass] [E,A,]2 [E,A,]2 [E,A,]2 | [A,,CG]6 A,,2 A,,2 A,,2 | %11
 D,2 [D,C]2 [D,B,]2 .[D,A,D]6 | [D,D]2 [D,D]2 [D,D]2 [D,A,]4 [F,_C]2 | [G,B,G]6 [=G,B,D]6 | %14
 [A,D]2 [A,DF]2 [A,DF]2[K:bass] [A,CE]4 A,,2 | D,12 |] %16
V:3
 x12 | x12 | x12 | x12 | x12 | x12 | x12 |[M:13/8] z z z z z2 .[A,C]3 z z z2 | %8
[M:6/4] .[DFA]4 [DFc]2 d2- [A,Fd-]2 [A,Fd]2 | z6 .G6 | x12 | .[DFA]4 G2 .F6 | z6 .F6 | x12 | x12 | %15
 x12 |] %16
V:4
 x12 | x12 | x12 | x12 | x12 | x12 | x12 |[M:13/8] z z z z z2 A,,-A,,-A,,-A,,- A,,3 | %8
[M:6/4] .D,6[K:treble][K:bass] z6 | D,6[K:treble][K:bass] z6 | x12 | x12 | x12 | x12 | %14
 x6[K:bass] x6 | x12 |] %16

